X: 37
T: Acıyaydı Bana Bir Kerrecik...
C: İsmail Hakkı Bey
O: Turkey
F: http://compmusic.upf.edu/node/140
N: nihavent--beste--fahte--aciyaydi_bana--muallim_ismail_hakki_bey
N: makam= nihavent
N: form= beste
N: usul= fahte = 20/4
M: 20/4
L: 1/16
K: C _B _e  
Q: 1/4=69
%%MIDI tuningsystem comma53
z4 G2d2 d4 d4  | e3d c2e2 d4 z4  | d4 g4 g4 ^f4  | \
w:  A cı yay dı   |  ba *  *  *  na   |  bir  ker re cik   | 
a3g g3^f f3e e3d  | 
w:  ol  *  gon *  ca  *  fe  | 
d6c2 c3B d4  | z4 d2d2 d4 d4  | e6dc c8  | \
w:  mim   *  SAZ  |  A cı maz dı   |  yü *  *  re  | 
d3e c3d B3c A4  | 
w:  ğim *  de  *  a *  cı  | 
c4 c3d B4 A3B  | G8 z8  | d6g2 g4 z4  | \
w:  yan  zahm_ *  ı  di  |  lim    |  Ya  *  lâ   | 
f3e d2f2 e4 z4  | d3c B2d2 c4 z4  | 
w:  ya  *  *  *  lâ   |  ya  *  *  *  lâ   | 
c4 c3c c4 e4  | d4 c4 B3A G4  | d6g2 g4 z4  | \
w:  yel  lel  le  lel  lel   |  lel  lel  lâ    |  Ta  *  nâ   | 
f3e d2f2 e4 z4  | d3c B2d2 c4 z4  | 
w:  ta  *  *  *  nâ   |  ta  *  *  *  nâ   | 
B4 B3B B3A G4  | A4 B3A G4 z4  | z4 g2g2 g4 a4  | \
w:  ten  nen  ne  ten  *  nen   |  *  nen  *  nâ    |  A cı  Al lah_  | 
b3c' b2a2 g4 z4  | 
w:  i *  *  *  çin   | 
b4 a4 g4 b4  | a4 g4 ^f3e e2d2  | d8 z8  | \
w:  ol sun  ki  ha  |  râb_ ı  aş  |  kım    | 
d6d2 d4 d4  | e6dc c8  | d3e c3d B3c A4  | 
w:  Ra ha tım  al  |  dı  *  *  vi  |  sâ *  lin  *  he *  ve  | 
c4 c3d B4 A3B  | G8 z8  | d6g2 g4 z4  | \
w:  siy le  *  e le  |  mim    |  Ya  *  lâ   | 
f3e d2f2 e4 z4  | d3c B2d2 c4 z4  | 
w:  ya  *  *  *  lâ   |  ya  *  *  *  lâ   | 
c4 c3c c4 e4  | d4 c4 B3A G4  | d6g2 g4 z4  | \
w:  yel  lel  le  lel  lel   |  lel  lel  lâ    |  Ta  *  nâ   | 
f3e d2f2 e4 z4  | d3c B2d2 c4 z4  | 
w:  ta  *  *  *  nâ   |  ta  *  *  *  nâ   | 
B4 B3B B3A G4  | A4 B3A G4 z4  | |


